X:656
T:Negro Breakdown II
B:Kerr's Merry Melodies for the Piano (n.d.)
Z:Nigel Gatherer
L:1/16
M:2/4
K:A
EFAB c2c2 | d2cB cAF2 | EFAB c2c2 | BABc A2z2 :|
agfe fgaf | ecBd cAce | agfe fgaf | ecBc A2z2  |
agfe fgaf | ecBd cBAF | EFAB c2c2 | BABc A2z2 |]
<end>
<start>
